X: 09029
T: DAVE TROP'S HORNPIPE
C: Bob McQuillen 14 Oct 92
B: Bob's Note Book 9 #29
%R: hornpipe, reel
Z: 2019 John Chambers <jc:trillian.mit.edu>
M: C
L: 1/8
K: G
GA \
| B2B2 ABcA | B2dB AGEG | DGBG Bdgd | BdBG A2GA |
| B2GB ABcA | GABG AGEG | DGBd cedc | B2G2 G2 :|
|: Bd \
| g2g2 gedB | edBG BGBd | g2ga gedB | edBG AGBd |
| g2ge dBGB | dedB AGEG | BGBd gedc | B2G2 G2 :|
%%begintext align
%% I usually see
%% Dave every year at the Seattle Folk Life Festival.
%% He's a fine fiddler, and we've played lots of
%% tunes together over the years. Try this one
%% Dave, and see what you think of it (but don't
%% tell me!)
%%endtext

%%sep 1 1 500

%%sep 1 1 500

